openmetadata-ui/src/main/resources/ui/src/assets/svg/request-icon.svg

<svg xmlns="http://www.w3.org/2000/svg" width="16" height="16" viewBox="0 0 16 16" fill="none">
<path d="M15.0626 3.15304C14.8211 3.15304 14.6252 3.35172 14.6252 3.59683V10.4408C14.6252 11.6643 13.6441 12.6598 12.4382 12.6598H8.28717C8.04568 12.6598 7.84994 12.8583 7.84977 13.1032L7.84915 13.9856L6.80516 12.9264C6.73758 12.769 6.58292 12.6598 6.40402 12.6598H3.56182C2.3559 12.6598 1.37481 11.6643 1.37481 10.4408V3.60651C1.37481 2.38299 2.3559 1.38757 3.56182 1.38757H12.3303C12.5718 1.38757 12.7677 1.18889 12.7677 0.943787C12.7677 0.698683 12.5718 0.5 12.3303 0.5H3.56182C1.87353 0.5 0.5 1.89358 0.5 3.60651V10.4408C0.5 12.1538 1.87353 13.5473 3.56182 13.5473H6.18003L7.97648 15.37C8.06016 15.4549 8.172 15.5 8.28586 15.5C8.34215 15.5 8.39897 15.4889 8.45299 15.4663C8.61645 15.3977 8.72304 15.2359 8.72317 15.0565L8.72422 13.5473H12.4382C14.1265 13.5473 15.5 12.1538 15.5 10.4408V3.59683C15.5 3.35172 15.3041 3.15304 15.0626 3.15304Z" fill="#1e61f0" stroke="#1e61f0" stroke-width="0.2"/>
<path fill-rule="evenodd" clip-rule="evenodd" d="M14.6252 3.60651H15.5C15.5 1.89358 14.1265 0.5 12.4382 0.5V1.38757C13.6441 1.38757 14.6252 2.38299 14.6252 3.60651Z" fill="#1e61f0" stroke="#1e61f0" stroke-width="0.2"/>
<path d="M9.90814 5.4065C9.84503 4.47743 9.10687 3.7285 8.19112 3.66446C7.67201 3.62829 7.17661 3.80594 6.79742 4.1651C6.42344 4.51928 6.20898 5.01996 6.20898 5.53879C6.20898 5.7839 6.40485 5.98258 6.64639 5.98258C6.88792 5.98258 7.08379 5.7839 7.08379 5.53879C7.08379 5.26103 7.1941 5.00359 7.39435 4.81396C7.59441 4.6245 7.85589 4.53073 8.13102 4.54999C8.61339 4.58372 9.00219 4.9782 9.03544 5.46757C9.06903 5.96181 8.74942 6.39859 8.27554 6.50616C7.89159 6.59332 7.62346 6.93184 7.62346 7.32934V8.39554C7.62346 8.64064 7.81933 8.83933 8.06086 8.83933C8.30244 8.83933 8.49826 8.64064 8.49822 8.39554V7.3648C9.37959 7.14876 9.97091 6.33051 9.90814 5.4065Z" fill="#1e61f0" stroke="#1e61f0" stroke-width="0.2"/>
<path d="M8.36774 9.83755C8.28638 9.755 8.17353 9.70752 8.0585 9.70752C7.94346 9.70752 7.83061 9.755 7.74925 9.83755C7.6679 9.92009 7.62109 10.0346 7.62109 10.1513C7.62109 10.2685 7.66794 10.383 7.74925 10.4655C7.83061 10.5481 7.94346 10.5951 8.0585 10.5951C8.17353 10.5951 8.28638 10.5481 8.36774 10.4655C8.4491 10.3825 8.4959 10.2685 8.4959 10.1513C8.4959 10.0346 8.44905 9.92009 8.36774 9.83755Z" fill="#1e61f0" stroke="#1e61f0" stroke-width="0.1"/>
</svg>

<svg xmlns="http://www.w3.org/2000/svg" width="16" height="16" fill="none"><path fill="#004AB3FF" stroke="#004AB3FF" stroke-width=".2" d="M15.063 3.153a.44.44 0 0 0-.438.444v6.844c0 1.223-.98 2.219-2.187 2.219h-4.15a.44.44 0 0 0-.438.443v.883l-1.045-1.06a.437.437 0 0 0-.401-.266H3.562c-1.206 0-2.187-.996-2.187-2.22V3.608c0-1.224.98-2.22 2.187-2.22h8.768a.44.44 0 0 0 .438-.443A.44.44 0 0 0 12.33.5H3.562C1.874.5.5 1.894.5 3.607v6.834c0 1.713 1.374 3.106 3.062 3.106H6.18l1.796 1.823a.434.434 0 0 0 .477.096.444.444 0 0 0 .27-.41l.001-1.509h3.714c1.688 0 3.062-1.393 3.062-3.106V3.597a.44.44 0 0 0-.437-.444Z"/><path fill="#004AB3FF" fill-rule="evenodd" stroke="#004AB3FF" stroke-width=".2" d="M14.625 3.607h.875C15.5 1.894 14.127.5 12.438.5v.888c1.206 0 2.187.995 2.187 2.219Z" clip-rule="evenodd"/><path fill="#004AB3FF" stroke="#004AB3FF" stroke-width=".2" d="M9.91 5.406a1.87 1.87 0 0 0-1.718-1.742 1.822 1.822 0 0 0-1.394.5A1.899 1.899 0 0 0 6.21 5.54a.44.44 0 0 0 .437.443.44.44 0 0 0 .438-.443c0-.278.11-.536.31-.725.2-.19.462-.283.737-.264a.985.985 0 0 1 .904.917.985.985 0 0 1-.76 1.039.837.837 0 0 0-.652.823v1.066a.44.44 0 0 0 .438.444.44.44 0 0 0 .437-.444v-1.03a1.866 1.866 0 0 0 1.41-1.959Z"/><path fill="#004AB3FF" stroke="#004AB3FF" stroke-width=".1" d="M8.368 9.838a.438.438 0 0 0-.309-.13.438.438 0 0 0-.437.443.437.437 0 0 0 .747.314.451.451 0 0 0 0-.627Z"/></svg>
